X: 0651
T: OLD GREY GOOSE
B: Oliver Ditson "The Boston Collection of Instrumental Music" 1910 p.65 #1
F: http://conquest.imslp.info/files/imglnks/usimg/8/8f/IMSLP175643-PMLP309456-bostoncollection00bost_bw.pdf
M: 2/4
L: 1/16
K: C
A2 |\
G2AB c2d2 | c2c2c2 A2 | G2E2 G2G2 | A2G2 A3B |\
c2d2 e2d2 | c2A2 G2E2 | c2A2 G2D2 | D4 D2z2 |
A2G2E2z2 | A2G2E2z2 | G3G G2E2 | G4 G2z2 |\
A2G2 A3B | c2d2 e4 | c2A2 G2E2 | D4 D2 |]
cA |\
G2AB cBcd | edcB dcBA | GAGE AGFD | [E4C4] [E2C2] |]

%%sep 1 1 500
%%sep 1 1 500
